X:1
T:Title
%%score { ( 1 3 4 ) | ( 2 5 ) }
L:1/8
M:6/8
K:G
V:1 treble nm="Grand Piano"
V:3 treble 
V:4 treble 
V:2 bass 
V:5 bass 
V:1
 z3 z2[Q:1/4=81] D | .G3 .F3 | EdE .[G,B,D]3 | EGA AEB | ABE A2 D | GDG FDF | EcE .[G,B,D]3 | %7
 B^cd dAF | AEB A3 | z z/ B/B z2 B | z [Ac]2- [Ac]3 | z z/ c/c [ce][Bd]c | z [DB]2- [DB]3 | %13
 z z/ c/c [Ac][Gc]c | .[DB]3 [Bd]3 | z z/ ^c/c [Ec][Fc]c | .[Bd]3 [Ac]3 | z z/ B/B z2 B | %18
 z [Ac]2- [Ac]3 | z z/ c/c [ce][Bd]c | z [DB]2- [DB]3 | z z/ c/c [ce][Ge]^d | z2 B z2 B | %23
 z z/ ^c/c [F=c][Dc]c |[M:5/8] [GB]-[GB]- [GB]3[K:bass] |] %25
V:2
 z6 | [G,,D,]3 [A,,D,]3 | [D,F,C]3 G,,2 E | [C,G,C]3 [B,,G,]3 | [A,,G,]3 .[D,F,C]3 | %5
 [G,,D,]3 [A,,D,]3 | [D,F,C]3 G,,2 D | [^G,,=F,]3 [A,,F,]3 | [A,,G,]3 [D,F,C]3 | %9
 .G,,>[K:treble]AG[K:bass] .B,,2 E | A,, [D,F,C]2 D,, D,2 | .F,,>[K:treble]FA[K:bass] .D,,2 A | %12
 G,, [D,G,B,]2 B,, D,2 | .C,,>[K:treble]FG[K:bass] .E,,2 E | .G,,2 G E,, E,2 | %15
 .A,,>[K:treble]BA[K:bass] .A,,2 G | z G,2[K:treble][K:bass] z3 | %17
 .G,,>[K:treble]AG[K:bass] .B,,2 E | A,, [D,F,C]2 D,, D,2 | .F,,>[K:treble]FA[K:bass] .D,,2 A | %20
 G,, [D,G,B,]2 B,, D,2 | .C,,>[K:treble]FG[K:bass] .E,,2 A | .G,,2 G .B,,2 D | %23
 .A,,>[K:treble]FG[K:bass] .D,,2 A |[M:5/8] G,,D,D, G,,2 |] %25
V:3
 x6 | B,-[B,-D][B,G] C-[C-D][CF] | x6 | z3 D3 | ^C3 z3 | B,3 C3 | x6 | D3 D3 | ^C3 z3 | %9
 .[GB]3 .[DB]3 | .[Fc]3 z [F,C]2 | .[Dc]3 z3 | .[GB]3 z [G,B,]2 | .[Ec]3 z3 | z2 B z [^G,E]2 | %15
 .[A^c]3 z3 | z2 d z [F,C]2 | .[GB]3 .[DB]3 | .[Fc]3 z [F,C]2 | .[Dc]3 z3 | .[GB]3 z [G,B,]2 | %21
 .[Ec]3 z3 | .[Bd]3 .[DB]3 | .[E^c]3 z3 |[M:5/8] z [G,B,][G,B,][K:bass] [D,G,B,]2 |] %25
V:4
 x6 | x6 | x6 | x6 | x6 | x6 | x6 | x6 | x6 | z [G,B,]2 z [G,B,]2 | x6 | z [F,C]2 z3 | x6 | %13
 z [G,C]2 z3 | z [G,B,]2 z3 | z [A,^C]2 z3 | z [B,D]2 z3 | z [G,B,]2 z [G,B,]2 | x6 | z [F,C]2 z3 | %20
 x6 | z [G,C]2 z3 | z [G,B,]2 z [G,B,]2 | z [A,^C]2 z3 |[M:5/8] x3[K:bass] x2 |] %25
V:5
 x6 | x6 | x6 | x6 | x6 | x6 | x6 | x6 | x6 | z D,2[K:treble][K:bass] z D,2 | x6 | %11
 z D,2[K:treble][K:bass] z [D,F,C]2 | x6 | z E,2[K:treble][K:bass] z [E,G,C]2 | z D,2 z3 | %15
 z G,2[K:treble][K:bass] z [G,A,^C]2 | .D,,2[K:treble] _B[K:bass] D,, D,2 | %17
 z D,2[K:treble][K:bass] z D,2 | x6 | z D,2[K:treble][K:bass] z [D,F,C]2 | x6 | %21
 z E,2[K:treble][K:bass] z [E,G,C]2 | z D,2 z D,2 | z G,2[K:treble][K:bass] z [D,F,C]2 | %24
[M:5/8] x5 |] %25

